X:12
T:Miss Margaret Brown
M:6/8
L:1/8
C:Nathaniel Gow
R:Jig
K:G
g|"G"dBG GAB|"C"E2E E2c|"D"AFD DEF|"G"G2 G G2g|"G"dBG GAB|"C"E2E E2c|!
"D"AFD DEF|"G"G3 G2:||
g/a/|"G"bgb "D"afd|"C"efg "Am"gfe|"G"dBg dBG|"D"AFD D2 g/a/|!"G"bgb "D"a
f
d|"C"efg gfe|"D"faf "A"ge^c|"D"d2 d de=f|"C"ece "G"dBd|"D"cac "G"BgB|!"A
m
"Ace "G"dBG|"D"FAF DEF|"G"GAB "C"EFG|"Am"ABc "D"def|"G"gdB "D"cAF|"G"G3
G2||
